packages/core/src/svgs/tokens/mono/FIRO.svg

<svg width="24" height="24" viewBox="0 0 24 24" fill="none" xmlns="http://www.w3.org/2000/svg">
<path d="M12.002 21.9981C13.6387 21.9989 15.2507 21.5977 16.6961 20.8296C18.1415 20.0615 19.376 18.9502 20.2914 17.5933C21.2067 16.2364 21.7746 14.6754 21.9454 13.0476C22.1162 11.4197 21.8845 9.77482 21.2707 8.25748H16.4052C16.2946 8.25767 16.1859 8.28727 16.0904 8.34324C15.995 8.39921 15.9161 8.47954 15.8619 8.57601L14.9999 10.1311H16.9986C17.1642 10.1311 17.323 10.197 17.4402 10.3142C17.5574 10.4312 17.6231 10.5902 17.6231 10.7558V12.6295C17.6231 12.7952 17.5574 12.954 17.4402 13.0712C17.323 13.1884 17.1642 13.2541 16.9986 13.2541H13.2511L10.2844 18.5568C10.2302 18.6532 10.1513 18.7335 10.0559 18.7895C9.96041 18.8455 9.85169 18.875 9.74108 18.8752H4.74444C6.5682 20.7989 9.14138 21.9981 12.002 21.9981ZM2.73331 15.7524C1.85706 13.5929 1.76308 11.1951 2.46762 8.97379C3.17215 6.75241 4.6309 4.8471 6.59155 3.58743C8.55221 2.32774 10.8915 1.79291 13.2047 2.07543C15.518 2.35797 17.6597 3.44007 19.2596 5.13461H14.5752C14.4646 5.1348 14.3559 5.16439 14.2604 5.22036C14.165 5.27633 14.0861 5.35667 14.0319 5.45314L11.4148 10.1311H7.62997C7.46433 10.1311 7.30547 10.197 7.18834 10.3142C7.0712 10.4312 7.0054 10.5902 7.0054 10.7558V12.6295C7.0054 12.7952 7.0712 12.954 7.18834 13.0712C7.30547 13.1884 7.46433 13.2541 7.62997 13.2541H9.67229L8.45442 15.4338C8.40018 15.5303 8.32129 15.6106 8.22582 15.6666C8.13034 15.7227 8.02171 15.7523 7.91104 15.7524H2.73331Z" fill="white"/>
</svg>

<svg xmlns="http://www.w3.org/2000/svg" width="24" height="24" fill="none" viewBox="0 0 24 24">
    <path fill="#fff" d="M12.002 21.998a9.993 9.993 0 0 0 9.269-13.74h-4.866a.63.63 0 0 0-.543.318L15 10.131h1.999a.625.625 0 0 1 .624.625v1.874a.624.624 0 0 1-.624.624H13.25l-2.967 5.303a.63.63 0 0 1-.543.318H4.744a9.96 9.96 0 0 0 7.258 3.123m-9.269-6.246A9.993 9.993 0 0 1 19.26 5.135h-4.685a.63.63 0 0 0-.543.318l-2.617 4.678H7.63a.624.624 0 0 0-.625.625v1.874a.625.625 0 0 0 .625.624h2.042l-1.218 2.18a.63.63 0 0 1-.543.318z"/>
</svg>
